X:790
T: Perfect Cure
T: Uile-\'Ioc
S: B.Breathnach:"Ceol Rince na hEireann" IV/66
Z: B.Black
L: 1/8
M: 12/8
Q: 360
R: jig
K: D
G|FEF D2d c2B A2G|FEF D2F E3 E2G|
FEF D2d c2B A2G|F2D E2C D3 D2 :|
g|f2e d2A Bcd A2g|f2e def e3 e2g|
f2e d2A Bcd A2G|F2D E2C D3 D2 :|
